X: 1879
T: So Early In The Morning
B: australian traditional tunes wiki
M:2/4
L:1/8
R: Polka
Q: 1/4=100
K:G
V:1 
GA|"G"Bd/B/ GB|"D"BA A2|Ac/A/ FA|"G"AGG2|Bd/B/ GB|"D"BAA2|AB/A/ FA|"G"AGG2|
"G"DG BG/B/|"D"dcc2|DF AF/A/|"G"cBB2|DG BG/B/|"D"dcc2|DF A>B|"G"AG G>A|
BB A>G|"D"FA A>B|cc B>A|"G"GB B>c|dd g>g|"C"fe ef/e/|"D"dd c>A|"G"GGG2||
% abcbook-tune_id 6342d53a36ca412325e09c56


% abcbook-boost 0
% abcbook-tablature 
% abcbook-transpose 
% abcbook-lastupdated 1665324390089
% abcbook-soundfonts 
% abcbook-repeats 1
% NFF Book 2019
% Bush Traditions recording played by Growling Dogs

